;FLAVOR:UltiGCode
;TIME:15962
;MATERIAL:12092
;MATERIAL2:0
;NOZZLE_DIAMETER:0.400000
;NOZZLE_DIAMETER2:0.400000

;Layer count: 247
;LAYER:0
M107
G0 F9000 X45.099 Y75.099 Z0.300
;TYPE:SKIRT
G1 F1200 X63.099 Y75.099 E2.16000
G1 X63.099 Y93.099 E4.32000
G1 X45.099 Y93.099 E6.48000
G1 X45.099 Y75.099 E8.64000
G0 F9000 X45.499 Y75.499
G1 F1200 X62.699 Y75.499 E10.70400
G1 X62.699 Y92.699 E12.76800
G1 X45.499 Y92.699 E14.83200
G1 X45.499 Y75.499 E16.89600
G0 F9000 X45.899 Y75.899
G1 F1200 X62.299 Y75.899 E18.86400
G1 X62.299 Y92.299 E20.83200
G1 X45.899 Y92.299 E22.80000
G1 X45.899 Y75.899 E24.76800
G10
G0 F9000 X49.699 Y79.699
;TYPE:WALL-INNER
G11
G1 F1200 X58.499 Y79.699 E25.82400
G1 X58.499 Y88.499 E26.88000
G1 X49.699 Y88.499 E27.93600
G1 X49.699 Y79.699 E28.99200
G0 F9000 X49.299 Y79.299
;TYPE:WALL-OUTER
G1 F1200 X58.899 Y79.299 E30.14400
G1 X58.899 Y88.899 E31.29600
G1 X49.299 Y88.899 E32.44800
G1 X49.299 Y79.299 E33.60000
G0 F9000 X50.140 Y79.838
;TYPE:SKIN
G1 F1200 X58.358 Y88.057 E34.99473
G0 F9000 X58.093 Y88.357
G1 F1200 X49.839 Y80.103 E36.39548
G0 F9000 X49.839 Y80.668
G1 F1200 X57.528 Y88.357 E37.70034
G0 F9000 X56.962 Y88.357
G1 F1200 X49.839 Y81.234 E38.90916
G0 F9000 X49.839 Y81.800
G1 F1200 X56.396 Y88.357 E40.02192
G0 F9000 X55.831 Y88.357
G1 F1200 X49.839 Y82.365 E41.03879
G0 F9000 X49.839 Y82.931
G1 F1200 X55.265 Y88.357 E41.95961
G0 F9000 X54.699 Y88.357
G1 F1200 X49.839 Y83.497 E42.78438
G0 F9000 X49.839 Y84.062
G1 F1200 X54.133 Y88.357 E43.51318
G0 F9000 X53.568 Y88.357
G1 F1200 X49.839 Y84.628 E44.14602
G0 F9000 X49.839 Y85.194
G1 F1200 X53.002 Y88.357 E44.68280
G0 F9000 X52.436 Y88.357
G1 F1200 X49.839 Y85.760 E45.12352
G0 F9000 X49.839 Y86.325
G1 F1200 X51.871 Y88.357 E45.46836
G0 F9000 X51.305 Y88.357
G1 F1200 X49.839 Y86.891 E45.71715
G0 F9000 X49.839 Y87.457
G1 F1200 X50.739 Y88.357 E45.86989
G0 F9000 X50.174 Y88.357
G1 F1200 X49.839 Y88.022 E45.92674
G0 F9000 X50.705 Y79.838
G1 F1200 X58.358 Y87.491 E47.22550
G0 F9000 X58.358 Y86.926
G1 F1200 X51.271 Y79.838 E48.42828
G0 F9000 X51.837 Y79.838
G1 F1200 X58.358 Y86.360 E49.53502
G0 F9000 X58.358 Y85.794
G1 F1200 X52.402 Y79.838 E50.54579
G0 F9000 X52.968 Y79.838
G1 F1200 X58.358 Y85.228 E51.46050
G0 F9000 X58.358 Y84.663
G1 F1200 X53.534 Y79.838 E52.27924
G0 F9000 X54.100 Y79.838
G1 F1200 X58.358 Y84.097 E53.00194
G0 F9000 X58.358 Y83.531
G1 F1200 X54.665 Y79.838 E53.62866
G0 F9000 X55.231 Y79.838
G1 F1200 X58.358 Y82.966 E54.15941
G0 F9000 X58.358 Y82.400
G1 F1200 X55.797 Y79.838 E54.59411
G0 F9000 X56.362 Y79.838
G1 F1200 X58.358 Y81.834 E54.93285
G0 F9000 X58.358 Y81.269
G1 F1200 X56.928 Y79.838 E55.17561
G0 F9000 X57.494 Y79.838
G1 F1200 X58.358 Y80.703 E55.32232
G0 F9000 X58.358 Y80.137
G1 F1200 X58.059 Y79.838 E55.37306
;LAYER:1
M106 S84
G0 F9000 X58.499 Y79.699 Z0.380
;TYPE:WALL-INNER
G1 F1620 X58.499 Y88.499 E55.65466
G1 X49.699 Y88.499 E55.93626
G1 X49.699 Y79.699 E56.21786
G1 X58.499 Y79.699 E56.49946
G0 F9000 X58.899 Y79.299
;TYPE:WALL-OUTER
G1 F1620 X58.899 Y88.899 E56.80666
G1 X49.299 Y88.899 E57.11386
G1 X49.299 Y79.299 E57.42106
G1 X58.899 Y79.299 E57.72826
G0 F9000 X58.358 Y79.951
;TYPE:SKIN
G1 F1620 X49.951 Y88.358 E58.10872
G0 F9000 X49.839 Y87.905
G1 F1620 X57.906 Y79.838 E58.47379
G0 F9000 X57.340 Y79.838
G1 F1620 X49.839 Y87.339 E58.81325
G0 F9000 X49.839 Y86.774
G1 F1620 X56.775 Y79.838 E59.12713
G0 F9000 X56.209 Y79.838
G1 F1620 X49.839 Y86.208 E59.41541
G0 F9000 X49.839 Y85.642
G1 F1620 X55.643 Y79.838 E59.67807
G0 F9000 X55.077 Y79.838
G1 F1620 X49.839 Y85.076 E59.91511
G0 F9000 X49.839 Y84.511
G1 F1620 X54.512 Y79.838 E60.12659
G0 F9000 X53.946 Y79.838
G1 F1620 X49.839 Y83.945 E60.31245
G0 F9000 X49.839 Y83.379
G1 F1620 X53.380 Y79.838 E60.47270
G0 F9000 X52.815 Y79.838
G1 F1620 X49.839 Y82.814 E60.60737
G0 F9000 X49.839 Y82.248
G1 F1620 X52.249 Y79.838 E60.71644
G0 F9000 X51.683 Y79.838
G1 F1620 X49.839 Y81.682 E60.79989
G0 F9000 X49.839 Y81.117
G1 F1620 X51.118 Y79.838 E60.85777
G0 F9000 X50.552 Y79.838
G1 F1620 X49.839 Y80.551 E60.89004
G0 F9000 X50.517 Y88.358
G1 F1620 X58.358 Y80.516 E61.24490
G0 F9000 X58.358 Y81.082
G1 F1620 X51.082 Y88.358 E61.57418
G0 F9000 X51.648 Y88.358
G1 F1620 X58.358 Y81.648 E61.87784
G0 F9000 X58.358 Y82.213
G1 F1620 X52.214 Y88.358 E62.15590
G0 F9000 X52.779 Y88.358
G1 F1620 X58.358 Y82.779 E62.40838
G0 F9000 X58.358 Y83.345
G1 F1620 X53.345 Y88.358 E62.63524
G0 F9000 X53.911 Y88.358
G1 F1620 X58.358 Y83.910 E62.83651
G0 F9000 X58.358 Y84.476
G1 F1620 X54.476 Y88.358 E63.01219
G0 F9000 X55.042 Y88.358
G1 F1620 X58.358 Y85.042 E63.16226
G0 F9000 X58.358 Y85.608
G1 F1620 X55.608 Y88.358 E63.28671
G0 F9000 X56.173 Y88.358
G1 F1620 X58.358 Y86.173 E63.38559
G0 F9000 X58.358 Y86.739
G1 F1620 X56.739 Y88.358 E63.45886
G0 F9000 X57.305 Y88.358
G1 F1620 X58.358 Y87.305 E63.50651
G0 F9000 X58.358 Y87.870
G1 F1620 X57.871 Y88.358 E63.52857
G0 F9000 X49.839 Y79.985
G1 F1620 X49.986 Y79.838 E63.53523
;LAYER:2
M106 S168
G0 F9000 X49.699 Y79.699 Z0.460
;TYPE:WALL-INNER
G1 F2100 X58.499 Y79.699 E63.81683
G1 X58.499 Y88.499 E64.09843
G1 X49.699 Y88.499 E64.38003
G1 X49.699 Y79.699 E64.66163
G0 F9000 X49.299 Y79.299
;TYPE:WALL-OUTER
G1 F2100 X58.899 Y79.299 E64.96883
G1 X58.899 Y88.899 E65.27603
G1 X49.299 Y88.899 E65.58323
G1 X49.299 Y79.299 E65.89043
G0 F9000 X50.140 Y79.838
;TYPE:SKIN
G1 F2100 X58.358 Y88.057 E66.26235
G0 F9000 X58.093 Y88.357
G1 F2100 X49.839 Y80.103 E66.63589
G0 F9000 X49.839 Y80.668
G1 F2100 X57.528 Y88.357 E66.98385
G0 F9000 X56.962 Y88.357
G1 F2100 X49.839 Y81.234 E67.30620
G0 F9000 X49.839 Y81.800
G1 F2100 X56.396 Y88.357 E67.60294
G0 F9000 X55.831 Y88.357
G1 F2100 X49.839 Y82.365 E67.87410
G0 F9000 X49.839 Y82.931
G1 F2100 X55.265 Y88.357 E68.11966
G0 F9000 X54.699 Y88.357
G1 F2100 X49.839 Y83.497 E68.33960
G0 F9000 X49.839 Y84.062
G1 F2100 X54.133 Y88.357 E68.53394
G0 F9000 X53.568 Y88.357
G1 F2100 X49.839 Y84.628 E68.70270
G0 F9000 X49.839 Y85.194
G1 F2100 X53.002 Y88.357 E68.84584
G0 F9000 X52.436 Y88.357
G1 F2100 X49.839 Y85.760 E68.96337
G0 F9000 X49.839 Y86.325
G1 F2100 X51.871 Y88.357 E69.05532
G0 F9000 X51.305 Y88.357
G1 F2100 X49.839 Y86.891 E69.12167
G0 F9000 X49.839 Y87.457
G1 F2100 X50.739 Y88.357 E69.16240
G0 F9000 X50.174 Y88.357
G1 F2100 X49.839 Y88.022 E69.17756
G0 F9000 X50.705 Y79.838
G1 F2100 X58.358 Y87.491 E69.52389
G0 F9000 X58.358 Y86.926
G1 F2100 X51.271 Y79.838 E69.84464
G0 F9000 X51.837 Y79.838
G1 F2100 X58.358 Y86.360 E70.13977
G0 F9000 X58.358 Y85.794
G1 F2100 X52.402 Y79.838 E70.40930
G0 F9000 X52.968 Y79.838
G1 F2100 X58.358 Y85.228 E70.65323
G0 F9000 X58.358 Y84.663
G1 F2100 X53.534 Y79.838 E70.87156
G0 F9000 X54.100 Y79.838
G1 F2100 X58.358 Y84.097 E71.06428
G0 F9000 X58.358 Y83.531
G1 F2100 X54.665 Y79.838 E71.23140
G0 F9000 X55.231 Y79.838
G1 F2100 X58.358 Y82.966 E71.37294
G0 F9000 X58.358 Y82.400
G1 F2100 X55.797 Y79.838 E71.48886
G0 F9000 X56.362 Y79.838
G1 F2100 X58.358 Y81.834 E71.57919
G0 F9000 X58.358 Y81.269
G1 F2100 X56.928 Y79.838 E71.64392
G0 F9000 X57.494 Y79.838
G1 F2100 X58.358 Y80.703 E71.68305
G0 F9000 X58.358 Y80.137
G1 F2100 X58.059 Y79.838 E71.69658
;LAYER:3
M106 S255
G0 F9000 X58.499 Y79.699 Z0.540
;TYPE:WALL-INNER
G1 F2520 X58.499 Y88.499 E71.97818
G1 X49.699 Y88.499 E72.25978
G1 X49.699 Y79.699 E72.54138
G1 X58.499 Y79.699 E72.82298
G0 F9000 X58.899 Y79.299
;TYPE:WALL-OUTER
G1 F2520 X58.899 Y88.899 E73.13018
G1 X49.299 Y88.899 E73.43738
G1 X49.299 Y79.299 E73.74458
G1 X58.899 Y79.299 E74.05178
G0 F9000 X58.358 Y79.951
;TYPE:SKIN
G1 F2520 X49.951 Y88.358 E74.43223
G0 F9000 X49.839 Y87.905
G1 F2520 X57.906 Y79.838 E74.79731
G0 F9000 X57.340 Y79.838
G1 F2520 X49.839 Y87.339 E75.13676
G0 F9000 X49.839 Y86.774
G1 F2520 X56.775 Y79.838 E75.45065
G0 F9000 X56.209 Y79.838
G1 F2520 X49.839 Y86.208 E75.73892
G0 F9000 X49.839 Y85.642
G1 F2520 X55.643 Y79.838 E76.00158
G0 F9000 X55.077 Y79.838
G1 F2520 X49.839 Y85.076 E76.23863
G0 F9000 X49.839 Y84.511
G1 F2520 X54.512 Y79.838 E76.45010
G0 F9000 X53.946 Y79.838
G1 F2520 X49.839 Y83.945 E76.63596
G0 F9000 X49.839 Y83.379
G1 F2520 X53.380 Y79.838 E76.79621
G0 F9000 X52.815 Y79.838
G1 F2520 X49.839 Y82.814 E76.93089
G0 F9000 X49.839 Y82.248
G1 F2520 X52.249 Y79.838 E77.03995
G0 F9000 X51.683 Y79.838
G1 F2520 X49.839 Y81.682 E77.12340
G0 F9000 X49.839 Y81.117
G1 F2520 X51.118 Y79.838 E77.18128
G0 F9000 X50.552 Y79.838
G1 F2520 X49.839 Y80.551 E77.21355
G0 F9000 X50.517 Y88.358
G1 F2520 X58.358 Y80.516 E77.56842
G0 F9000 X58.358 Y81.082
G1 F2520 X51.082 Y88.358 E77.89769
G0 F9000 X51.648 Y88.358
G1 F2520 X58.358 Y81.648 E78.20135
G0 F9000 X58.358 Y82.213
G1 F2520 X52.214 Y88.358 E78.47942
G0 F9000 X52.779 Y88.358
G1 F2520 X58.358 Y82.779 E78.73190
G0 F9000 X58.358 Y83.345
G1 F2520 X53.345 Y88.358 E78.95876
G0 F9000 X53.911 Y88.358
G1 F2520 X58.358 Y83.910 E79.16003
G0 F9000 X58.358 Y84.476
G1 F2520 X54.476 Y88.358 E79.33571
G0 F9000 X55.042 Y88.358
G1 F2520 X58.358 Y85.042 E79.48577
G0 F9000 X58.358 Y85.608
G1 F2520 X55.608 Y88.358 E79.61022
G0 F9000 X56.173 Y88.358
G1 F2520 X58.358 Y86.173 E79.70911
G0 F9000 X58.358 Y86.739
G1 F2520 X56.739 Y88.358 E79.78237
G0 F9000 X57.305 Y88.358
G1 F2520 X58.358 Y87.305 E79.83003
G0 F9000 X58.358 Y87.870
G1 F2520 X57.871 Y88.358 E79.85209
G0 F9000 X49.839 Y79.985
G1 F2520 X49.986 Y79.838 E79.85874
;LAYER:4
G0 F9000 X49.699 Y79.699 Z0.620
;TYPE:WALL-INNER
G1 F3000 X58.499 Y79.699 E80.14034
G1 X58.499 Y88.499 E80.42194
G1 X49.699 Y88.499 E80.70354
G1 X49.699 Y79.699 E80.98514
G0 F9000 X49.299 Y79.299
;TYPE:WALL-OUTER
G1 F3000 X58.899 Y79.299 E81.29234
G1 X58.899 Y88.899 E81.59954
G1 X49.299 Y88.899 E81.90674
G1 X49.299 Y79.299 E82.21394
G0 F9000 X50.140 Y79.838
;TYPE:SKIN
G1 F3000 X58.358 Y88.057 E82.58587
G0 F9000 X58.093 Y88.357
G1 F3000 X49.839 Y80.103 E82.95940
G0 F9000 X49.839 Y80.668
G1 F3000 X57.528 Y88.357 E83.30737
G0 F9000 X56.962 Y88.357
G1 F3000 X49.839 Y81.234 E83.62972
G0 F9000 X49.839 Y81.800
G1 F3000 X56.396 Y88.357 E83.92645
G0 F9000 X55.831 Y88.357
G1 F3000 X49.839 Y82.365 E84.19762
G0 F9000 X49.839 Y82.931
G1 F3000 X55.265 Y88.357 E84.44317
G0 F9000 X54.699 Y88.357
G1 F3000 X49.839 Y83.497 E84.66311
G0 F9000 X49.839 Y84.062
G1 F3000 X54.133 Y88.357 E84.85746
G0 F9000 X53.568 Y88.357
G1 F3000 X49.839 Y84.628 E85.02621
G0 F9000 X49.839 Y85.194
G1 F3000 X53.002 Y88.357 E85.16935
G0 F9000 X52.436 Y88.357
G1 F3000 X49.839 Y85.760 E85.28688
G0 F9000 X49.839 Y86.325
G1 F3000 X51.871 Y88.357 E85.37884
G0 F9000 X51.305 Y88.357
G1 F3000 X49.839 Y86.891 E85.44518
G0 F9000 X49.839 Y87.457
G1 F3000 X50.739 Y88.357 E85.48591
G0 F9000 X50.174 Y88.357
G1 F3000 X49.839 Y88.022 E85.50107
G0 F9000 X50.705 Y79.838
G1 F3000 X58.358 Y87.491 E85.84741
G0 F9000 X58.358 Y86.926
G1 F3000 X51.271 Y79.838 E86.16815
G0 F9000 X51.837 Y79.838
G1 F3000 X58.358 Y86.360 E86.46328
G0 F9000 X58.358 Y85.794
G1 F3000 X52.402 Y79.838 E86.73282
G0 F9000 X52.968 Y79.838
G1 F3000 X58.358 Y85.228 E86.97674
G0 F9000 X58.358 Y84.663
G1 F3000 X53.534 Y79.838 E87.19507
G0 F9000 X54.100 Y79.838
G1 F3000 X58.358 Y84.097 E87.38779
G0 F9000 X58.358 Y83.531
G1 F3000 X54.665 Y79.838 E87.55492
G0 F9000 X55.231 Y79.838
G1 F3000 X58.358 Y82.966 E87.69645
G0 F9000 X58.358 Y82.400
G1 F3000 X55.797 Y79.838 E87.81237
G0 F9000 X56.362 Y79.838
G1 F3000 X58.358 Y81.834 E87.90270
G0 F9000 X58.358 Y81.269
G1 F3000 X56.928 Y79.838 E87.96744
G0 F9000 X57.494 Y79.838
G1 F3000 X58.358 Y80.703 E88.00656
G0 F9000 X58.358 Y80.137
G1 F3000 X58.059 Y79.838 E88.02009
;LAYER:5
G0 F9000 X58.499 Y79.699 Z0.700
;TYPE:WALL-INNER
G1 F3000 X58.499 Y88.499 E88.30169
G1 X49.699 Y88.499 E88.58329
G1 X49.699 Y79.699 E88.86489
G1 X58.499 Y79.699 E89.14649
G0 F9000 X58.899 Y79.299
;TYPE:WALL-OUTER
G1 F3000 X58.899 Y88.899 E89.45369
G1 X49.299 Y88.899 E89.76089
G1 X49.299 Y79.299 E90.06809
G1 X58.899 Y79.299 E90.37529
G0 F9000 X58.358 Y79.951
;TYPE:SKIN
G1 F3000 X49.951 Y88.358 E90.75575
G0 F9000 X49.839 Y87.905
G1 F3000 X57.906 Y79.838 E91.12082
G0 F9000 X57.340 Y79.838
G1 F3000 X49.839 Y87.339 E91.46028
G0 F9000 X49.839 Y86.774
G1 F3000 X56.775 Y79.838 E91.77416
G0 F9000 X56.209 Y79.838
G1 F3000 X49.839 Y86.208 E92.06244
G0 F9000 X49.839 Y85.642
G1 F3000 X55.643 Y79.838 E92.32510
G0 F9000 X55.077 Y79.838
G1 F3000 X49.839 Y85.076 E92.56214
G0 F9000 X49.839 Y84.511
G1 F3000 X54.512 Y79.838 E92.77362
G0 F9000 X53.946 Y79.838
G1 F3000 X49.839 Y83.945 E92.95948
G0 F9000 X49.839 Y83.379
G1 F3000 X53.380 Y79.838 E93.11973
G0 F9000 X52.815 Y79.838
G1 F3000 X49.839 Y82.814 E93.25440
G0 F9000 X49.839 Y82.248
G1 F3000 X52.249 Y79.838 E93.36347
G0 F9000 X51.683 Y79.838
G1 F3000 X49.839 Y81.682 E93.44692
G0 F9000 X49.839 Y81.117
G1 F3000 X51.118 Y79.838 E93.50480
G0 F9000 X50.552 Y79.838
G1 F3000 X49.839 Y80.551 E93.53707
G0 F9000 X50.517 Y88.358
G1 F3000 X58.358 Y80.516 E93.89193
G0 F9000 X58.358 Y81.082
G1 F3000 X51.082 Y88.358 E94.22121
G0 F9000 X51.648 Y88.358
G1 F3000 X58.358 Y81.648 E94.52487
G0 F9000 X58.358 Y82.213
G1 F3000 X52.214 Y88.358 E94.80293
G0 F9000 X52.779 Y88.358
G1 F3000 X58.358 Y82.779 E95.05541
G0 F9000 X58.358 Y83.345
G1 F3000 X53.345 Y88.358 E95.28227
G0 F9000 X53.911 Y88.358
G1 F3000 X58.358 Y83.910 E95.48354
G0 F9000 X58.358 Y84.476
G1 F3000 X54.476 Y88.358 E95.65922
G0 F9000 X55.042 Y88.358
G1 F3000 X58.358 Y85.042 E95.80929
G0 F9000 X58.358 Y85.608
G1 F3000 X55.608 Y88.358 E95.93374
G0 F9000 X56.173 Y88.358
G1 F3000 X58.358 Y86.173 E96.03262
G0 F9000 X58.358 Y86.739
G1 F3000 X56.739 Y88.358 E96.10589
G0 F9000 X57.305 Y88.358
G1 F3000 X58.358 Y87.305 E96.15354
G0 F9000 X58.358 Y87.870
G1 F3000 X57.871 Y88.358 E96.17560
G0 F9000 X49.839 Y79.985
G1 F3000 X49.986 Y79.838 E96.18226
;LAYER:6
G0 F9000 X49.699 Y79.699 Z0.780
;TYPE:WALL-INNER
G1 F3000 X58.499 Y79.699 E96.46386
G1 X58.499 Y88.499 E96.74546
G1 X49.699 Y88.499 E97.02706
G1 X49.699 Y79.699 E97.30866
G0 F9000 X49.299 Y79.299
;TYPE:WALL-OUTER
G1 F3000 X58.899 Y79.299 E97.61586
G1 X58.899 Y88.899 E97.92306
G1 X49.299 Y88.899 E98.23026
G1 X49.299 Y79.299 E98.53746
G0 F9000 X50.140 Y79.838
;TYPE:SKIN
G1 F3000 X58.358 Y88.057 E98.90938
G0 F9000 X58.093 Y88.357
G1 F3000 X49.839 Y80.103 E99.28292
G0 F9000 X49.839 Y80.668
G1 F3000 X57.528 Y88.357 E99.63088
G0 F9000 X56.962 Y88.357
G1 F3000 X49.839 Y81.234 E99.95323
G0 F9000 X49.839 Y81.800
G1 F3000 X56.396 Y88.357 E100.24997
G0 F9000 X55.831 Y88.357
G1 F3000 X49.839 Y82.365 E100.52113
G0 F9000 X49.839 Y82.931
G1 F3000 X55.265 Y88.357 E100.76669
G0 F9000 X54.699 Y88.357
G1 F3000 X49.839 Y83.497 E100.98662
G0 F9000 X49.839 Y84.062
G1 F3000 X54.133 Y88.357 E101.18097
G0 F9000 X53.568 Y88.357
G1 F3000 X49.839 Y84.628 E101.34973
G0 F9000 X49.839 Y85.194
G1 F3000 X53.002 Y88.357 E101.49287
G0 F9000 X52.436 Y88.357
G1 F3000 X49.839 Y85.760 E101.61039
G0 F9000 X49.839 Y86.325
G1 F3000 X51.871 Y88.357 E101.70235
G0 F9000 X51.305 Y88.357
G1 F3000 X49.839 Y86.891 E101.76870
G0 F9000 X49.839 Y87.457
G1 F3000 X50.739 Y88.357 E101.80943
G0 F9000 X50.174 Y88.357
G1 F3000 X49.839 Y88.022 E101.82459
G0 F9000 X50.705 Y79.838
G1 F3000 X58.358 Y87.491 E102.17092
G0 F9000 X58.358 Y86.926
G1 F3000 X51.271 Y79.838 E102.49166
G0 F9000 X51.837 Y79.838
G1 F3000 X58.358 Y86.360 E102.78679
G0 F9000 X58.358 Y85.794
G1 F3000 X52.402 Y79.838 E103.05633
G0 F9000 X52.968 Y79.838
G1 F3000 X58.358 Y85.228 E103.30026
G0 F9000 X58.358 Y84.663
G1 F3000 X53.534 Y79.838 E103.51859
G0 F9000 X54.100 Y79.838
G1 F3000 X58.358 Y84.097 E103.71131
G0 F9000 X58.358 Y83.531
G1 F3000 X54.665 Y79.838 E103.87843
G0 F9000 X55.231 Y79.838
G1 F3000 X58.358 Y82.966 E104.01997
G0 F9000 X58.358 Y82.400
G1 F3000 X55.797 Y79.838 E104.13589
G0 F9000 X56.362 Y79.838
G1 F3000 X58.358 Y81.834 E104.22621
G0 F9000 X58.358 Y81.269
G1 F3000 X56.928 Y79.838 E104.29095
G0 F9000 X57.494 Y79.838
G1 F3000 X58.358 Y80.703 E104.33007
G0 F9000 X58.358 Y80.137
G1 F3000 X58.059 Y79.838 E104.34361
;LAYER:7
G0 F9000 X58.499 Y79.699 Z0.860
;TYPE:WALL-INNER
G1 F3000 X58.499 Y88.499 E104.62521
G1 X49.699 Y88.499 E104.90681
G1 X49.699 Y79.699 E105.18841
G1 X58.499 Y79.699 E105.47001
G0 F9000 X58.899 Y79.299
;TYPE:WALL-OUTER
G1 F3000 X58.899 Y88.899 E105.77721
