;FLAVOR:UltiGCode
;TIME:4090
;MATERIAL:2585
;MATERIAL2:0
;NOZZLE_DIAMETER:0.400000
;NOZZLE_DIAMETER2:0.400000

;Layer count: 372
;LAYER:0
M107
G0 F9000 X102.500 Y102.500 Z0.300
;TYPE:SKIRT
G1 F1200 X120.500 Y102.500 E2.16000
G1 X120.500 Y120.500 E4.32000
G1 X102.500 Y120.500 E6.48000
G1 X102.500 Y102.500 E8.64000
G0 F9000 X102.900 Y102.900
G1 F1200 X120.100 Y102.900 E10.70400
G1 X120.100 Y120.100 E12.76800
G1 X102.900 Y120.100 E14.83200
G1 X102.900 Y102.900 E16.89600
G0 F9000 X103.300 Y103.300
G1 F1200 X119.700 Y103.300 E18.86400
G1 X119.700 Y119.700 E20.83200
G1 X103.300 Y119.700 E22.80000
G1 X103.300 Y103.300 E24.76800
G10
G0 F9000 X107.100 Y107.100
;TYPE:WALL-INNER
G11
G1 F1200 X115.900 Y107.100 E25.82400
G1 X115.900 Y115.900 E26.88000
G1 X107.100 Y115.900 E27.93600
G1 X107.100 Y107.100 E28.99200
G0 F9000 X106.700 Y106.700
;TYPE:WALL-OUTER
G1 F1200 X116.300 Y106.700 E30.14400
G1 X116.300 Y116.300 E31.29600
G1 X106.700 Y116.300 E32.44800
G1 X106.700 Y106.700 E33.60000
G0 F9000 X107.239 Y107.522
;TYPE:SKIN
G1 F1200 X115.476 Y115.759 E34.99787
G0 F9000 X115.759 Y115.476
G1 F1200 X107.522 Y107.239 E36.39573
G0 F9000 X108.088 Y107.239
G1 F1200 X115.759 Y114.911 E37.69763
G0 F9000 X115.759 Y114.345
G1 F1200 X108.654 Y107.239 E38.90347
G0 F9000 X109.219 Y107.239
G1 F1200 X115.759 Y113.779 E40.01335
G0 F9000 X115.759 Y113.214
G1 F1200 X109.785 Y107.239 E41.02725
G0 F9000 X110.351 Y107.239
G1 F1200 X115.759 Y112.648 E41.94510
G0 F9000 X115.759 Y112.082
G1 F1200 X110.916 Y107.239 E42.76699
G0 F9000 X111.482 Y107.239
G1 F1200 X115.759 Y111.517 E43.49290
G0 F9000 X115.759 Y110.951
G1 F1200 X112.048 Y107.239 E44.12277
G0 F9000 X112.613 Y107.239
G1 F1200 X115.759 Y110.385 E44.65666
G0 F9000 X115.759 Y109.820
G1 F1200 X113.179 Y107.239 E45.09459
G0 F9000 X113.745 Y107.239
G1 F1200 X115.759 Y109.254 E45.43646
G0 F9000 X115.759 Y108.688
G1 F1200 X114.310 Y107.239 E45.68236
G0 F9000 X114.876 Y107.239
G1 F1200 X115.759 Y108.122 E45.83221
G0 F9000 X115.759 Y107.557
G1 F1200 X115.442 Y107.239 E45.88609
G0 F9000 X107.239 Y108.088
G1 F1200 X114.910 Y115.759 E47.18791
G0 F9000 X114.344 Y115.759
G1 F1200 X107.239 Y108.654 E48.39366
G0 F9000 X107.239 Y109.219
G1 F1200 X113.779 Y115.759 E49.50354
G0 F9000 X113.213 Y115.759
G1 F1200 X107.239 Y109.785 E50.51736
G0 F9000 X107.239 Y110.351
G1 F1200 X112.647 Y115.759 E51.43513
G0 F9000 X112.082 Y115.759
G1 F1200 X107.239 Y110.916 E52.25701
G0 F9000 X107.239 Y111.482
G1 F1200 X111.516 Y115.759 E52.98284
G0 F9000 X110.950 Y115.759
G1 F1200 X107.239 Y112.048 E53.61262
G0 F9000 X107.239 Y112.613
G1 F1200 X110.385 Y115.759 E54.14651
G0 F9000 X109.819 Y115.759
G1 F1200 X107.239 Y113.179 E54.58436
G0 F9000 X107.239 Y113.745
G1 F1200 X109.253 Y115.759 E54.92614
G0 F9000 X108.687 Y115.759
G1 F1200 X107.239 Y114.310 E55.17196
G0 F9000 X107.239 Y114.876
G1 F1200 X108.122 Y115.759 E55.32181
G0 F9000 X107.556 Y115.759
G1 F1200 X107.239 Y115.442 E55.37561
;LAYER:1
M106 S84
G0 F9000 X107.100 Y115.900 Z0.380
;TYPE:WALL-INNER
G1 F1620 X107.100 Y107.100 E55.65721
G1 X115.900 Y107.100 E55.93881
G1 X115.900 Y115.900 E56.22041
G1 X107.100 Y115.900 E56.50201
G0 F9000 X106.700 Y116.300
;TYPE:WALL-OUTER
G1 F1620 X106.700 Y106.700 E56.80921
G1 X116.300 Y106.700 E57.11641
G1 X116.300 Y116.300 E57.42361
G1 X106.700 Y116.300 E57.73081
G0 F9000 X107.403 Y115.759
;TYPE:SKIN
G1 F1620 X115.759 Y107.403 E58.10896
G0 F9000 X115.357 Y107.239
G1 F1620 X107.239 Y115.357 E58.47634
G0 F9000 X107.239 Y114.791
G1 F1620 X114.791 Y107.239 E58.81810
G0 F9000 X114.226 Y107.239
G1 F1620 X107.239 Y114.226 E59.13430
G0 F9000 X107.239 Y113.660
G1 F1620 X113.660 Y107.239 E59.42488
G0 F9000 X113.094 Y107.239
G1 F1620 X107.239 Y113.094 E59.68984
G0 F9000 X107.239 Y112.528
G1 F1620 X112.528 Y107.239 E59.92920
G0 F9000 X111.963 Y107.239
G1 F1620 X107.239 Y111.963 E60.14298
G0 F9000 X107.239 Y111.397
G1 F1620 X111.397 Y107.239 E60.33115
G0 F9000 X110.831 Y107.239
G1 F1620 X107.239 Y110.831 E60.49371
G0 F9000 X107.239 Y110.266
G1 F1620 X110.266 Y107.239 E60.63069
G0 F9000 X109.700 Y107.239
G1 F1620 X107.239 Y109.700 E60.74206
G0 F9000 X107.239 Y109.134
G1 F1620 X109.134 Y107.239 E60.82782
G0 F9000 X108.569 Y107.239
G1 F1620 X107.239 Y108.569 E60.88801
G0 F9000 X107.239 Y108.003
G1 F1620 X108.003 Y107.239 E60.92259
G0 F9000 X107.437 Y107.239
G1 F1620 X107.239 Y107.437 E60.93155
G0 F9000 X107.968 Y115.759
G1 F1620 X115.759 Y107.969 E61.28410
G0 F9000 X115.759 Y108.535
G1 F1620 X108.534 Y115.759 E61.61105
G0 F9000 X109.100 Y115.759
G1 F1620 X115.759 Y109.100 E61.91240
G0 F9000 X115.759 Y109.666
G1 F1620 X109.665 Y115.759 E62.18816
G0 F9000 X110.231 Y115.759
G1 F1620 X115.759 Y110.232 E62.43831
G0 F9000 X115.759 Y110.797
G1 F1620 X110.797 Y115.759 E62.66286
G0 F9000 X111.362 Y115.759
G1 F1620 X115.759 Y111.363 E62.86182
G0 F9000 X115.759 Y111.929
G1 F1620 X111.928 Y115.759 E63.03517
G0 F9000 X112.494 Y115.759
G1 F1620 X115.759 Y112.495 E63.18291
G0 F9000 X115.759 Y113.060
G1 F1620 X113.060 Y115.759 E63.30505
G0 F9000 X113.625 Y115.759
G1 F1620 X115.759 Y113.626 E63.40160
G0 F9000 X115.759 Y114.192
G1 F1620 X114.191 Y115.759 E63.47254
G0 F9000 X114.757 Y115.759
G1 F1620 X115.759 Y114.757 E63.51788
G0 F9000 X115.759 Y115.323
G1 F1620 X115.322 Y115.759 E63.53764
;LAYER:2
M106 S168
G0 F9000 X115.900 Y115.900 Z0.460
;TYPE:WALL-INNER
G1 F2100 X107.100 Y115.900 E63.81924
G1 X107.100 Y107.100 E64.10084
G1 X115.900 Y107.100 E64.38244
G1 X115.900 Y115.900 E64.66404
G0 F9000 X116.300 Y116.300
;TYPE:WALL-OUTER
G1 F2100 X106.700 Y116.300 E64.97124
G1 X106.700 Y106.700 E65.27844
G1 X116.300 Y106.700 E65.58564
G1 X116.300 Y116.300 E65.89284
G0 F9000 X115.476 Y115.759
;TYPE:SKIN
G1 F2100 X107.239 Y107.522 E66.26560
G0 F9000 X107.522 Y107.239
G1 F2100 X115.759 Y115.476 E66.63836
G0 F9000 X115.759 Y114.911
G1 F2100 X108.088 Y107.239 E66.98554
G0 F9000 X108.654 Y107.239
G1 F2100 X115.759 Y114.345 E67.30710
G0 F9000 X115.759 Y113.779
G1 F2100 X109.219 Y107.239 E67.60306
G0 F9000 X109.785 Y107.239
G1 F2100 X115.759 Y113.214 E67.87344
G0 F9000 X115.759 Y112.648
G1 F2100 X110.351 Y107.239 E68.11820
G0 F9000 X110.916 Y107.239
G1 F2100 X115.759 Y112.082 E68.33737
G0 F9000 X115.759 Y111.517
G1 F2100 X111.482 Y107.239 E68.53094
G0 F9000 X112.048 Y107.239
G1 F2100 X115.759 Y110.951 E68.69891
G0 F9000 X115.759 Y110.385
G1 F2100 X112.613 Y107.239 E68.84128
G0 F9000 X113.179 Y107.239
G1 F2100 X115.759 Y109.820 E68.95806
G0 F9000 X115.759 Y109.254
G1 F2100 X113.745 Y107.239 E69.04923
G0 F9000 X114.310 Y107.239
G1 F2100 X115.759 Y108.688 E69.11480
G0 F9000 X115.759 Y108.122
G1 F2100 X114.876 Y107.239 E69.15476
G0 F9000 X115.442 Y107.239
G1 F2100 X115.759 Y107.557 E69.16913
G0 F9000 X114.910 Y115.759
G1 F2100 X107.239 Y108.088 E69.51628
G0 F9000 X107.239 Y108.654
G1 F2100 X114.344 Y115.759 E69.83781
G0 F9000 X113.779 Y115.759
G1 F2100 X107.239 Y109.219 E70.13378
G0 F9000 X107.239 Y109.785
G1 F2100 X113.213 Y115.759 E70.40413
G0 F9000 X112.647 Y115.759
G1 F2100 X107.239 Y110.351 E70.64887
G0 F9000 X107.239 Y110.916
G1 F2100 X112.082 Y115.759 E70.86804
G0 F9000 X111.516 Y115.759
G1 F2100 X107.239 Y111.482 E71.06160
G0 F9000 X107.239 Y112.048
G1 F2100 X110.950 Y115.759 E71.22954
G0 F9000 X110.385 Y115.759
G1 F2100 X107.239 Y112.613 E71.37191
G0 F9000 X107.239 Y113.179
G1 F2100 X109.819 Y115.759 E71.48866
G0 F9000 X109.253 Y115.759
G1 F2100 X107.239 Y113.745 E71.57981
G0 F9000 X107.239 Y114.310
G1 F2100 X108.687 Y115.759 E71.64536
G0 F9000 X108.122 Y115.759
G1 F2100 X107.239 Y114.876 E71.68532
G0 F9000 X107.239 Y115.442
G1 F2100 X107.556 Y115.759 E71.69967
;LAYER:3
M106 S255
G0 F9000 X107.100 Y115.900 Z0.540
;TYPE:WALL-INNER
G1 F2520 X107.100 Y107.100 E71.98127
G1 X115.900 Y107.100 E72.26287
G1 X115.900 Y115.900 E72.54447
G1 X107.100 Y115.900 E72.82607
G0 F9000 X106.700 Y116.300
;TYPE:WALL-OUTER
G1 F2520 X106.700 Y106.700 E73.13327
G1 X116.300 Y106.700 E73.44047
G1 X116.300 Y116.300 E73.74767
G1 X106.700 Y116.300 E74.05487
G0 F9000 X107.403 Y115.759
;TYPE:SKIN
G1 F2520 X115.759 Y107.403 E74.43302
G0 F9000 X115.357 Y107.239
G1 F2520 X107.239 Y115.357 E74.80039
G0 F9000 X107.239 Y114.791
G1 F2520 X114.791 Y107.239 E75.14216
G0 F9000 X114.226 Y107.239
G1 F2520 X107.239 Y114.226 E75.45835
G0 F9000 X107.239 Y113.660
G1 F2520 X113.660 Y107.239 E75.74894
G0 F9000 X113.094 Y107.239
G1 F2520 X107.239 Y113.094 E76.01390
G0 F9000 X107.239 Y112.528
G1 F2520 X112.528 Y107.239 E76.25325
G0 F9000 X111.963 Y107.239
G1 F2520 X107.239 Y111.963 E76.46704
G0 F9000 X107.239 Y111.397
G1 F2520 X111.397 Y107.239 E76.65521
G0 F9000 X110.831 Y107.239
G1 F2520 X107.239 Y110.831 E76.81776
G0 F9000 X107.239 Y110.266
G1 F2520 X110.266 Y107.239 E76.95475
G0 F9000 X109.700 Y107.239
G1 F2520 X107.239 Y109.700 E77.06612
G0 F9000 X107.239 Y109.134
G1 F2520 X109.134 Y107.239 E77.15188
G0 F9000 X108.569 Y107.239
G1 F2520 X107.239 Y108.569 E77.21207
G0 F9000 X107.239 Y108.003
G1 F2520 X108.003 Y107.239 E77.24664
G0 F9000 X107.437 Y107.239
G1 F2520 X107.239 Y107.437 E77.25560
G0 F9000 X107.968 Y115.759
G1 F2520 X115.759 Y107.969 E77.60816
G0 F9000 X115.759 Y108.535
G1 F2520 X108.534 Y115.759 E77.93511
G0 F9000 X109.100 Y115.759
G1 F2520 X115.759 Y109.100 E78.23646
G0 F9000 X115.759 Y109.666
G1 F2520 X109.665 Y115.759 E78.51222
G0 F9000 X110.231 Y115.759
G1 F2520 X115.759 Y110.232 E78.76236
G0 F9000 X115.759 Y110.797
G1 F2520 X110.797 Y115.759 E78.98692
G0 F9000 X111.362 Y115.759
G1 F2520 X115.759 Y111.363 E79.18588
G0 F9000 X115.759 Y111.929
G1 F2520 X111.928 Y115.759 E79.35923
G0 F9000 X112.494 Y115.759
G1 F2520 X115.759 Y112.495 E79.50696
G0 F9000 X115.759 Y113.060
G1 F2520 X113.060 Y115.759 E79.62911
G0 F9000 X113.625 Y115.759
G1 F2520 X115.759 Y113.626 E79.72566
G0 F9000 X115.759 Y114.192
G1 F2520 X114.191 Y115.759 E79.79660
G0 F9000 X114.757 Y115.759
G1 F2520 X115.759 Y114.757 E79.84194
G0 F9000 X115.759 Y115.323
G1 F2520 X115.322 Y115.759 E79.86169
;LAYER:4
G0 F9000 X115.900 Y115.900 Z0.620
;TYPE:WALL-INNER
G1 F3000 X107.100 Y115.900 E80.14329
G1 X107.100 Y107.100 E80.42489
G1 X115.900 Y107.100 E80.70649
G1 X115.900 Y115.900 E80.98809
G0 F9000 X116.300 Y116.300
;TYPE:WALL-OUTER
G1 F3000 X106.700 Y116.300 E81.29529
G1 X106.700 Y106.700 E81.60249
G1 X116.300 Y106.700 E81.90969
G1 X116.300 Y116.300 E82.21689
G0 F9000 X115.476 Y115.759
;TYPE:SKIN
G1 F3000 X107.239 Y107.522 E82.58966
G0 F9000 X107.522 Y107.239
G1 F3000 X115.759 Y115.476 E82.96242
G0 F9000 X115.759 Y114.911
G1 F3000 X108.088 Y107.239 E83.30959
G0 F9000 X108.654 Y107.239
G1 F3000 X115.759 Y114.345 E83.63115
G0 F9000 X115.759 Y113.779
G1 F3000 X109.219 Y107.239 E83.92712
G0 F9000 X109.785 Y107.239
G1 F3000 X115.759 Y113.214 E84.19749
G0 F9000 X115.759 Y112.648
G1 F3000 X110.351 Y107.239 E84.44226
G0 F9000 X110.916 Y107.239
G1 F3000 X115.759 Y112.082 E84.66142
G0 F9000 X115.759 Y111.517
G1 F3000 X111.482 Y107.239 E84.85500
G0 F9000 X112.048 Y107.239
G1 F3000 X115.759 Y110.951 E85.02297
G0 F9000 X115.759 Y110.385
G1 F3000 X112.613 Y107.239 E85.16534
G0 F9000 X113.179 Y107.239
G1 F3000 X115.759 Y109.820 E85.28212
G0 F9000 X115.759 Y109.254
G1 F3000 X113.745 Y107.239 E85.37328
G0 F9000 X114.310 Y107.239
G1 F3000 X115.759 Y108.688 E85.43886
G0 F9000 X115.759 Y108.122
G1 F3000 X114.876 Y107.239 E85.47882
G0 F9000 X115.442 Y107.239
G1 F3000 X115.759 Y107.557 E85.49319
G0 F9000 X114.910 Y115.759
G1 F3000 X107.239 Y108.088 E85.84034
G0 F9000 X107.239 Y108.654
G1 F3000 X114.344 Y115.759 E86.16187
G0 F9000 X113.779 Y115.759
G1 F3000 X107.239 Y109.219 E86.45784
G0 F9000 X107.239 Y109.785
G1 F3000 X113.213 Y115.759 E86.72819
G0 F9000 X112.647 Y115.759
G1 F3000 X107.239 Y110.351 E86.97293
G0 F9000 X107.239 Y110.916
G1 F3000 X112.082 Y115.759 E87.19210
G0 F9000 X111.516 Y115.759
G1 F3000 X107.239 Y111.482 E87.38565
G0 F9000 X107.239 Y112.048
G1 F3000 X110.950 Y115.759 E87.55359
G0 F9000 X110.385 Y115.759
G1 F3000 X107.239 Y112.613 E87.69597
G0 F9000 X107.239 Y113.179
G1 F3000 X109.819 Y115.759 E87.81272
G0 F9000 X109.253 Y115.759
G1 F3000 X107.239 Y113.745 E87.90387
G0 F9000 X107.239 Y114.310
G1 F3000 X108.687 Y115.759 E87.96942
G0 F9000 X108.122 Y115.759
G1 F3000 X107.239 Y114.876 E88.00938
G0 F9000 X107.239 Y115.442
G1 F3000 X107.556 Y115.759 E88.02372
;LAYER:5
G0 F9000 X107.100 Y115.900 Z0.700
;TYPE:WALL-INNER
G1 F3000 X107.100 Y107.100 E88.30532
G1 X115.900 Y107.100 E88.58692
G1 X115.900 Y115.900 E88.86852
G1 X107.100 Y115.900 E89.15012
G0 F9000 X106.700 Y116.300
;TYPE:WALL-OUTER
G1 F3000 X106.700 Y106.700 E89.45732
G1 X116.300 Y106.700 E89.76452
G1 X116.300 Y116.300 E90.07172
G1 X106.700 Y116.300 E90.37892
G0 F9000 X107.403 Y115.759
;TYPE:SKIN
G1 F3000 X115.759 Y107.403 E90.75707
G0 F9000 X115.357 Y107.239
G1 F3000 X107.239 Y115.357 E91.12445
G0 F9000 X107.239 Y114.791
G1 F3000 X114.791 Y107.239 E91.46622
G0 F9000 X114.226 Y107.239
G1 F3000 X107.239 Y114.226 E91.78241
G0 F9000 X107.239 Y113.660
G1 F3000 X113.660 Y107.239 E92.07299
G0 F9000 X113.094 Y107.239
G1 F3000 X107.239 Y113.094 E92.33796
G0 F9000 X107.239 Y112.528
G1 F3000 X112.528 Y107.239 E92.57731
G0 F9000 X111.963 Y107.239
G1 F3000 X107.239 Y111.963 E92.79110
G0 F9000 X107.239 Y111.397
G1 F3000 X111.397 Y107.239 E92.97927
G0 F9000 X110.831 Y107.239
G1 F3000 X107.239 Y110.831 E93.14182
G0 F9000 X107.239 Y110.266
G1 F3000 X110.266 Y107.239 E93.27881
G0 F9000 X109.700 Y107.239
G1 F3000 X107.239 Y109.700 E93.39018
G0 F9000 X107.239 Y109.134
G1 F3000 X109.134 Y107.239 E93.47594
G0 F9000 X108.569 Y107.239
G1 F3000 X107.239 Y108.569 E93.53613
G0 F9000 X107.239 Y108.003
G1 F3000 X108.003 Y107.239 E93.57070
G0 F9000 X107.437 Y107.239
G1 F3000 X107.239 Y107.437 E93.57966
G0 F9000 X107.968 Y115.759
G1 F3000 X115.759 Y107.969 E93.93222
G0 F9000 X115.759 Y108.535
G1 F3000 X108.534 Y115.759 E94.25916
G0 F9000 X109.100 Y115.759
G1 F3000 X115.759 Y109.100 E94.56052
G0 F9000 X115.759 Y109.666
G1 F3000 X109.665 Y115.759 E94.83628
G0 F9000 X110.231 Y115.759
G1 F3000 X115.759 Y110.232 E95.08642
G0 F9000 X115.759 Y110.797
G1 F3000 X110.797 Y115.759 E95.31098
G0 F9000 X111.362 Y115.759
G1 F3000 X115.759 Y111.363 E95.50994
G0 F9000 X115.759 Y111.929
G1 F3000 X111.928 Y115.759 E95.68329
G0 F9000 X112.494 Y115.759
G1 F3000 X115.759 Y112.495 E95.83102
G0 F9000 X115.759 Y113.060
G1 F3000 X113.060 Y115.759 E95.95316
G0 F9000 X113.625 Y115.759
G1 F3000 X115.759 Y113.626 E96.04972
G0 F9000 X115.759 Y114.192
G1 F3000 X114.191 Y115.759 E96.12065
G0 F9000 X114.757 Y115.759
G1 F3000 X115.759 Y114.757 E96.16600
G0 F9000 X115.759 Y115.323
G1 F3000 X115.322 Y115.759 E96.18575
;LAYER:6
G0 F9000 X115.900 Y115.900 Z0.780
;TYPE:WALL-INNER
G1 F3000 X107.100 Y115.900 E96.46735
G1 X107.100 Y107.100 E96.74895
G1 X115.900 Y107.100 E97.03055
G1 X115.900 Y115.900 E97.31215
G0 F9000 X116.300 Y116.300
;TYPE:WALL-OUTER
G1 F3000 X106.700 Y116.300 E97.61935
G1 X106.700 Y106.700 E97.92655
G1 X116.300 Y106.700 E98.23375
G1 X116.300 Y116.300 E98.54095
G0 F9000 X115.476 Y115.759
;TYPE:SKIN
G1 F3000 X107.239 Y107.522 E98.91372
G0 F9000 X107.522 Y107.239
G1 F3000 X115.759 Y115.476 E99.28648
G0 F9000 X115.759 Y114.911
G1 F3000 X108.088 Y107.239 E99.63365
G0 F9000 X108.654 Y107.239
G1 F3000 X115.759 Y114.345 E99.95521
G0 F9000 X115.759 Y113.779
G1 F3000 X109.219 Y107.239 E100.25118
G0 F9000 X109.785 Y107.239
G1 F3000 X115.759 Y113.214 E100.52155
G0 F9000 X115.759 Y112.648
G1 F3000 X110.351 Y107.239 E100.76631
G0 F9000 X110.916 Y107.239
G1 F3000 X115.759 Y112.082 E100.98548
G0 F9000 X115.759 Y111.517
G1 F3000 X111.482 Y107.239 E101.17906
G0 F9000 X112.048 Y107.239
G1 F3000 X115.759 Y110.951 E101.34702
G0 F9000 X115.759 Y110.385
G1 F3000 X112.613 Y107.239 E101.48939
G0 F9000 X113.179 Y107.239
G1 F3000 X115.759 Y109.820 E101.60618
G0 F9000 X115.759 Y109.254
G1 F3000 X113.745 Y107.239 E101.69734
G0 F9000 X114.310 Y107.239
G1 F3000 X115.759 Y108.688 E101.76292
G0 F9000 X115.759 Y108.122
G1 F3000 X114.876 Y107.239 E101.80288
G0 F9000 X115.442 Y107.239
G1 F3000 X115.759 Y107.557 E101.81724
G0 F9000 X114.910 Y115.759
G1 F3000 X107.239 Y108.088 E102.16439
G0 F9000 X107.239 Y108.654
G1 F3000 X114.344 Y115.759 E102.48593
G0 F9000 X113.779 Y115.759
