;FLAVOR:UltiGCode
;TIME:2231
;MATERIAL:4645
;MATERIAL2:0
;NOZZLE_DIAMETER:0.400000
;NOZZLE_DIAMETER2:0.400000

;Layer count: 78
;LAYER:0
M107
G0 F9000 X94.801 Y94.800 Z0.300
G0 X94.497 Y95.169
;TYPE:SKIRT
G1 F1200 X94.801 Y94.800 E0.05737
G1 X98.380 Y91.863 E0.61295
G1 X102.463 Y89.681 E1.16849
G1 X106.893 Y88.337 E1.72401
G1 X111.500 Y87.883 E2.27953
G1 X116.107 Y88.337 E2.83505
G1 X120.537 Y89.681 E3.39058
G1 X124.620 Y91.863 E3.94611
G1 X128.200 Y94.800 E4.50178
G1 X130.834 Y98.010 E5.00007
G1 X130.833 Y98.010 E5.00019
G1 X131.137 Y98.379 E5.05756
G1 X133.096 Y102.044 E5.55624
G1 X133.320 Y102.466 E5.61357
G1 X134.522 Y106.430 E6.11064
G1 X134.663 Y106.890 E6.16838
G1 X135.067 Y110.997 E6.66360
G1 X135.119 Y111.485 E6.72249
G1 X134.709 Y115.646 E7.22423
G1 X134.659 Y116.120 E7.28142
G1 X133.457 Y120.083 E7.77837
G1 X133.318 Y120.540 E7.83569
G1 X131.362 Y124.199 E8.33358
G1 X131.139 Y124.618 E8.39053
G1 X128.503 Y127.831 E8.88925
G1 X128.199 Y128.200 E8.94662
G1 X124.620 Y131.137 E9.50220
G1 X120.537 Y133.319 E10.05773
G1 X116.107 Y134.663 E10.61326
G1 X111.500 Y135.117 E11.16878
G1 X106.893 Y134.663 E11.72429
G1 X102.463 Y133.319 E12.27982
G1 X98.380 Y131.137 E12.83536
G1 X94.800 Y128.200 E13.39103
G1 X92.166 Y124.990 E13.88931
G1 X92.167 Y124.990 E13.88943
G1 X91.863 Y124.621 E13.94680
G1 X89.904 Y120.956 E14.44549
G1 X89.680 Y120.534 E14.50282
G1 X88.476 Y116.564 E15.00065
G1 X88.337 Y116.110 E15.05762
G1 X87.930 Y111.975 E15.55622
G1 X87.881 Y111.515 E15.61173
G1 X88.291 Y107.354 E16.11347
G1 X88.341 Y106.880 E16.17067
G1 X89.543 Y102.917 E16.66762
G1 X89.682 Y102.460 E16.72494
G1 X91.638 Y98.801 E17.22282
G1 X91.861 Y98.382 E17.27978
G1 X94.497 Y95.169 E17.77849
G0 F9000 X94.806 Y95.423
G1 F1200 X95.085 Y95.084 E17.83118
G1 X98.603 Y92.197 E18.37729
G1 X102.617 Y90.052 E18.92343
G1 X106.971 Y88.731 E19.46943
G1 X111.500 Y88.284 E20.01555
G1 X116.029 Y88.731 E20.56167
G1 X120.383 Y90.052 E21.10767
G1 X124.397 Y92.197 E21.65381
G1 X127.916 Y95.084 E22.20002
G1 X130.524 Y98.263 E22.69344
G1 X130.802 Y98.602 E22.74605
G1 X132.743 Y102.232 E23.24002
G1 X132.949 Y102.620 E23.29273
G1 X134.140 Y106.547 E23.78517
G1 X134.268 Y106.969 E23.83809
G1 X134.669 Y111.039 E24.32885
G1 X134.717 Y111.487 E24.38292
G1 X134.311 Y115.605 E24.87947
G1 X134.265 Y116.040 E24.93197
G1 X133.075 Y119.966 E25.42425
G1 X132.947 Y120.386 E25.47694
G1 X131.009 Y124.010 E25.97010
G1 X130.805 Y124.395 E26.02238
G1 X128.194 Y127.577 E26.51632
G1 X127.915 Y127.916 E26.56900
G1 X124.397 Y130.803 E27.11512
G1 X120.383 Y132.948 E27.66126
G1 X116.029 Y134.269 E28.20726
G1 X111.500 Y134.716 E28.75338
G1 X106.971 Y134.269 E29.29950
G1 X102.617 Y132.948 E29.84550
G1 X98.603 Y130.803 E30.39164
G1 X95.084 Y127.916 E30.93784
G1 X92.475 Y124.736 E31.43144
G1 X92.198 Y124.398 E31.48388
G1 X90.257 Y120.768 E31.97784
G1 X90.051 Y120.380 E32.03056
G1 X88.860 Y116.453 E32.52299
G1 X88.732 Y116.031 E32.57591
G1 X88.328 Y111.935 E33.06982
G1 X88.283 Y111.513 E33.12074
G1 X88.689 Y107.395 E33.61730
G1 X88.735 Y106.960 E33.66979
G1 X89.925 Y103.034 E34.16208
G1 X90.053 Y102.614 E34.21477
G1 X91.991 Y98.990 E34.70792
G1 X92.195 Y98.605 E34.76021
G1 X94.806 Y95.423 E35.25414
G10
G0 F9000 X97.785 Y97.785
;TYPE:WALL-INNER
G11
G1 F1200 X100.726 Y95.371 E35.71073
G1 X104.078 Y93.580 E36.16678
G1 X107.716 Y92.476 E36.62300
G1 X111.500 Y92.103 E37.07928
G1 X115.284 Y92.476 E37.53556
G1 X118.922 Y93.580 E37.99178
G1 X122.274 Y95.371 E38.44784
G1 X125.215 Y97.785 E38.90442
G1 X127.629 Y100.726 E39.36100
G1 X129.389 Y104.020 E39.80917
G1 X129.421 Y104.080 E39.81733
G1 X130.505 Y107.656 E40.26573
G1 X130.524 Y107.718 E40.27351
G1 X130.890 Y111.439 E40.72219
G1 X130.897 Y111.504 E40.73003
G1 X130.531 Y115.215 E41.17751
G1 X130.524 Y115.284 E41.18583
G1 X129.439 Y118.860 E41.63427
G1 X129.420 Y118.923 E41.64217
G1 X127.658 Y122.220 E42.09076
G1 X127.629 Y122.274 E42.09812
G1 X125.215 Y125.215 E42.55470
G1 X122.274 Y127.629 E43.01128
G1 X118.922 Y129.420 E43.46734
G1 X115.284 Y130.524 E43.92356
G1 X111.500 Y130.897 E44.37984
G1 X107.716 Y130.524 E44.83612
G1 X104.078 Y129.420 E45.29234
G1 X100.726 Y127.629 E45.74839
G1 X97.785 Y125.215 E46.20498
G1 X95.371 Y122.274 E46.66156
G1 X93.610 Y118.979 E47.10989
G1 X93.579 Y118.920 E47.11788
G1 X92.495 Y115.344 E47.56629
G1 X92.476 Y115.282 E47.57407
G1 X92.110 Y111.561 E48.02274
G1 X92.103 Y111.496 E48.03059
G1 X92.469 Y107.785 E48.47807
G1 X92.476 Y107.716 E48.48639
G1 X93.561 Y104.140 E48.93483
G1 X93.580 Y104.077 E48.94272
G1 X95.342 Y100.780 E49.39132
G1 X95.371 Y100.726 E49.39867
G1 X97.785 Y97.785 E49.85526
G0 F9000 X97.500 Y97.500
;TYPE:WALL-OUTER
G1 F1200 X100.504 Y95.036 E50.32149
G1 X103.923 Y93.208 E50.78673
G1 X107.636 Y92.082 E51.25233
G1 X111.500 Y91.701 E51.71826
G1 X115.364 Y92.082 E52.18418
G1 X119.077 Y93.208 E52.64978
G1 X122.496 Y95.036 E53.11502
G1 X125.500 Y97.500 E53.58125
G1 X127.964 Y100.504 E54.04749
G1 X129.792 Y103.923 E54.51273
G1 X130.918 Y107.636 E54.97832
G1 X131.288 Y111.398 E55.43194
G1 X131.299 Y111.500 E55.44425
G1 X130.929 Y115.258 E55.89739
G1 X130.918 Y115.364 E55.91018
G1 X129.792 Y119.077 E56.37578
G1 X127.964 Y122.496 E56.84102
G1 X125.500 Y125.500 E57.30725
G1 X122.496 Y127.964 E57.77348
G1 X119.077 Y129.792 E58.23872
G1 X115.364 Y130.918 E58.70432
G1 X111.500 Y131.299 E59.17025
G1 X107.636 Y130.918 E59.63618
G1 X103.923 Y129.792 E60.10178
G1 X100.504 Y127.964 E60.56702
G1 X97.500 Y125.500 E61.03325
G1 X95.036 Y122.496 E61.49948
G1 X93.208 Y119.077 E61.96472
G1 X92.082 Y115.364 E62.43032
G1 X91.712 Y111.602 E62.88394
G1 X91.701 Y111.499 E62.89637
G1 X92.071 Y107.742 E63.34939
G1 X92.082 Y107.636 E63.36218
G1 X93.208 Y103.923 E63.82777
G1 X95.036 Y100.504 E64.29301
G1 X97.500 Y97.500 E64.75925
G0 F9000 X97.755 Y98.038
;TYPE:SKIN
G1 F1200 X124.959 Y125.242 E69.37592
G0 F9000 X125.243 Y124.960
G1 F1200 X98.038 Y97.756 E73.99268
G0 F9000 X98.350 Y97.501
G1 F1200 X125.498 Y124.649 E78.59984
G0 F9000 X125.753 Y124.339
G1 F1200 X98.660 Y97.246 E83.19768
G0 F9000 X98.971 Y96.991
G1 F1200 X126.007 Y124.027 E87.78584
G0 F9000 X126.263 Y123.717
G1 F1200 X99.282 Y96.736 E92.36467
G0 F9000 X99.593 Y96.481
G1 F1200 X126.517 Y123.406 E96.93391
G0 F9000 X126.772 Y123.095
G1 F1200 X99.904 Y96.227 E101.49356
G0 F9000 X97.500 Y98.349
G1 F1200 X124.648 Y125.497 E106.10073
G0 F9000 X124.338 Y125.752
G1 F1200 X97.245 Y98.659 E110.69856
G0 F9000 X96.991 Y98.970
G1 F1200 X124.027 Y126.007 E115.28681
G0 F9000 X123.716 Y126.262
G1 F1200 X96.735 Y99.281 E119.86563
G0 F9000 X96.481 Y99.592
G1 F1200 X123.405 Y126.516 E124.43479
G0 F9000 X123.094 Y126.771
G1 F1200 X96.226 Y99.903 E128.99444
G0 F9000 X95.971 Y100.214
G1 F1200 X122.784 Y127.026 E133.54467
G0 F9000 X122.473 Y127.281
G1 F1200 X95.716 Y100.525 E138.08540
G0 F9000 X95.467 Y100.841
G1 F1200 X122.156 Y127.530 E142.61467
G0 F9000 X121.788 Y127.728
G1 F1200 X95.269 Y101.209 E147.11510
G0 F9000 X95.072 Y101.578
G1 F1200 X121.420 Y127.925 E151.58642
G0 F9000 X121.051 Y128.122
G1 F1200 X94.876 Y101.947 E156.02846
G0 F9000 X94.678 Y102.315
G1 F1200 X120.682 Y128.319 E160.44149
G0 F9000 X120.314 Y128.516
G1 F1200 X94.481 Y102.683 E164.82549
G0 F9000 X94.284 Y103.052
G1 F1200 X119.945 Y128.713 E169.18031
G0 F9000 X119.577 Y128.911
G1 F1200 X94.087 Y103.421 E173.50610
G0 F9000 X93.890 Y103.789
G1 F1200 X119.208 Y129.107 E177.80271
G0 F9000 X118.834 Y129.300
G1 F1200 X93.698 Y104.163 E182.06852
G0 F9000 X93.566 Y104.597
G1 F1200 X118.400 Y129.431 E186.28299
G0 F9000 X117.966 Y129.563
G1 F1200 X93.434 Y105.031 E190.44620
G0 F9000 X93.303 Y105.465
G1 F1200 X117.533 Y129.695 E194.55817
G0 F9000 X117.099 Y129.826
G1 F1200 X93.171 Y105.899 E198.61880
G0 F9000 X93.040 Y106.334
G1 F1200 X116.664 Y129.958 E202.62793
G0 F9000 X116.230 Y130.089
G1 F1200 X92.908 Y106.768 E206.58572
G0 F9000 X92.776 Y107.201
G1 F1200 X115.797 Y130.222 E210.49251
G0 F9000 X115.363 Y130.353
G1 F1200 X92.645 Y107.635 E214.34788
G0 F9000 X92.575 Y108.131
G1 F1200 X114.867 Y130.423 E218.13096
G0 F9000 X114.352 Y130.474
G1 F1200 X92.524 Y108.646 E221.83530
G0 F9000 X92.473 Y109.161
G1 F1200 X113.837 Y130.524 E225.46080
G0 F9000 X113.322 Y130.575
G1 F1200 X92.423 Y109.676 E229.00748
G0 F9000 X92.372 Y110.191
G1 F1200 X112.807 Y130.626 E232.47542
G0 F9000 X112.292 Y130.676
G1 F1200 X92.321 Y110.706 E235.86452
G0 F9000 X92.271 Y111.221
G1 F1200 X111.777 Y130.727 E239.17480
G0 F9000 X111.210 Y130.726
G1 F1200 X92.272 Y111.788 E242.38868
G0 F9000 X92.334 Y112.415
G1 F1200 X110.583 Y130.664 E245.48564
G0 F9000 X109.955 Y130.603
G1 F1200 X92.395 Y113.043 E248.46567
G0 F9000 X92.457 Y113.670
G1 F1200 X109.327 Y130.541 E251.32869
G0 F9000 X108.700 Y130.479
G1 F1200 X92.519 Y114.298 E254.07470
G0 F9000 X92.580 Y114.925
G1 F1200 X108.073 Y130.418 E256.70395
G0 F9000 X107.359 Y130.269
G1 F1200 X92.729 Y115.639 E259.18674
G0 F9000 X92.976 Y116.452
G1 F1200 X106.546 Y130.022 E261.48965
G0 F9000 X105.735 Y129.776
G1 F1200 X93.222 Y117.263 E263.61317
G0 F9000 X93.468 Y118.076
G1 F1200 X104.922 Y129.529 E265.55690
G0 F9000 X104.100 Y129.273
G1 F1200 X93.727 Y118.900 E267.31725
G0 F9000 X94.376 Y120.114
G1 F1200 X102.884 Y128.623 E268.76119
G0 F9000 X101.668 Y127.972
G1 F1200 X95.025 Y121.330 E269.88846
G0 F9000 X96.240 Y123.110
G1 F1200 X99.888 Y126.758 E270.50755
G0 F9000 X127.027 Y122.784
G1 F1200 X100.214 Y95.972 E275.05778
G0 F9000 X100.525 Y95.717
G1 F1200 X127.282 Y122.473 E279.59851
G0 F9000 X127.531 Y122.157
G1 F1200 X100.841 Y95.467 E284.12795
G0 F9000 X101.210 Y95.270
G1 F1200 X127.728 Y121.789 E288.62829
G0 F9000 X127.926 Y121.420
G1 F1200 X101.578 Y95.073 E293.09961
G0 F9000 X101.947 Y94.876
G1 F1200 X128.123 Y121.052 E297.54183
G0 F9000 X128.320 Y120.684
G1 F1200 X102.316 Y94.679 E301.95494
G0 F9000 X102.684 Y94.482
G1 F1200 X128.517 Y120.314 E306.33886
G0 F9000 X128.714 Y119.946
G1 F1200 X103.053 Y94.285 E310.69367
G0 F9000 X103.422 Y94.088
G1 F1200 X128.911 Y119.578 E315.01938
G0 F9000 X129.109 Y119.209
G1 F1200 X103.791 Y93.891 E319.31599
G0 F9000 X104.164 Y93.699
G1 F1200 X129.300 Y118.835 E323.58171
G0 F9000 X129.433 Y118.402
G1 F1200 X104.598 Y93.567 E327.79635
G0 F9000 X105.032 Y93.436
G1 F1200 X129.564 Y117.968 E331.95957
G0 F9000 X129.696 Y117.533
G1 F1200 X105.466 Y93.304 E336.07145
G0 F9000 X105.900 Y93.172
G1 F1200 X129.827 Y117.099 E340.13200
G0 F9000 X129.959 Y116.665
G1 F1200 X106.334 Y93.041 E344.14121
G0 F9000 X106.768 Y92.909
G1 F1200 X130.090 Y116.231 E348.09908
G0 F9000 X130.222 Y115.797
G1 F1200 X107.202 Y92.777 E352.00571
G0 F9000 X107.636 Y92.645
G1 F1200 X130.354 Y115.363 E355.86108
G0 F9000 X130.424 Y114.868
G1 F1200 X108.132 Y92.575 E359.64424
G0 F9000 X108.646 Y92.524
G1 F1200 X130.475 Y114.353 E363.34875
G0 F9000 X130.525 Y113.837
G1 F1200 X109.161 Y92.474 E366.97425
G0 F9000 X109.677 Y92.423
G1 F1200 X130.576 Y113.323 E370.52102
G0 F9000 X130.627 Y112.808
G1 F1200 X110.191 Y92.372 E373.98912
G0 F9000 X110.706 Y92.321
G1 F1200 X130.678 Y112.293 E377.37848
G0 F9000 X130.728 Y111.778
G1 F1200 X111.221 Y92.271 E380.68893
G0 F9000 X111.788 Y92.272
G1 F1200 X130.727 Y111.210 E383.90290
G0 F9000 X130.664 Y110.583
G1 F1200 X112.415 Y92.334 E386.99986
G0 F9000 X113.043 Y92.396
G1 F1200 X130.603 Y109.955 E389.97980
G0 F9000 X130.541 Y109.328
G1 F1200 X113.670 Y92.457 E392.84291
G0 F9000 X114.298 Y92.519
G1 F1200 X130.480 Y108.701 E395.58908
G0 F9000 X130.418 Y108.074
G1 F1200 X114.926 Y92.581 E398.21825
G0 F9000 X115.640 Y92.729
G1 F1200 X130.269 Y107.359 E400.70096
G0 F9000 X130.023 Y106.547
G1 F1200 X116.452 Y92.976 E403.00403
G0 F9000 X117.264 Y93.222
G1 F1200 X129.777 Y105.735 E405.12756
G0 F9000 X129.532 Y104.924
G1 F1200 X118.076 Y93.469 E407.07162
G0 F9000 X118.898 Y93.725
G1 F1200 X129.275 Y104.102 E408.83266
G0 F9000 X128.624 Y102.886
G1 F1200 X120.114 Y94.376 E410.27685
G0 F9000 X121.331 Y95.026
G1 F1200 X127.974 Y101.669 E411.40420
G0 F9000 X126.759 Y99.889
G1 F1200 X123.110 Y96.240 E412.02346
;LAYER:1
M106 S127
G0 F9000 X122.274 Y95.371 Z0.400
;TYPE:WALL-INNER
G1 F1980 X125.215 Y97.785 E412.17565
G1 X127.629 Y100.726 E412.32785
G1 X129.420 Y104.078 E412.47987
G1 X130.524 Y107.716 E412.63194
G1 X130.897 Y111.500 E412.78403
G1 X130.524 Y115.284 E412.93613
G1 X129.420 Y118.922 E413.08820
G1 X127.629 Y122.274 E413.24022
G1 X125.215 Y125.215 E413.39241
G1 X122.274 Y127.629 E413.54461
G1 X118.922 Y129.420 E413.69663
G1 X115.284 Y130.524 E413.84870
G1 X111.500 Y130.897 E414.00079
G1 X107.716 Y130.524 E414.15289
G1 X104.078 Y129.420 E414.30496
G1 X100.726 Y127.629 E414.45698
G1 X97.785 Y125.215 E414.60917
G1 X95.371 Y122.274 E414.76137
G1 X93.580 Y118.922 E414.91338
G1 X92.476 Y115.284 E415.06546
G1 X92.103 Y111.500 E415.21755
G1 X92.476 Y107.716 E415.36964
G1 X93.580 Y104.078 E415.52172
G1 X95.371 Y100.726 E415.67374
G1 X97.785 Y97.785 E415.82593
G1 X100.726 Y95.371 E415.97812
G1 X104.078 Y93.580 E416.13014
G1 X107.716 Y92.476 E416.28222
G1 X111.500 Y92.103 E416.43431
G1 X115.284 Y92.476 E416.58640
G1 X118.922 Y93.580 E416.73848
G1 X122.274 Y95.371 E416.89050
G0 F9000 X122.496 Y95.036
;TYPE:WALL-OUTER
G1 F1980 X125.500 Y97.500 E417.04591
G1 X127.964 Y100.504 E417.20132
G1 X129.792 Y103.923 E417.35640
G1 X130.918 Y107.636 E417.51160
G1 X131.299 Y111.500 E417.66691
G1 X130.918 Y115.364 E417.82221
G1 X129.792 Y119.077 E417.97741
G1 X127.964 Y122.496 E418.13249
G1 X125.500 Y125.500 E418.28790
G1 X122.496 Y127.964 E418.44332
G1 X119.077 Y129.792 E418.59840
G1 X115.364 Y130.918 E418.75359
G1 X111.500 Y131.299 E418.90890
G1 X107.636 Y130.918 E419.06421
G1 X103.923 Y129.792 E419.21941
G1 X100.504 Y127.964 E419.37449
G1 X97.500 Y125.500 E419.52990
G1 X95.036 Y122.496 E419.68531
G1 X93.208 Y119.077 E419.84039
G1 X92.082 Y115.364 E419.99559
G1 X91.701 Y111.500 E420.15090
G1 X92.082 Y107.636 E420.30621
G1 X93.208 Y103.923 E420.46141
G1 X95.036 Y100.504 E420.61649
G1 X97.500 Y97.500 E420.77190
G1 X100.504 Y95.036 E420.92731
G1 X103.923 Y93.208 E421.08239
G1 X107.636 Y92.082 E421.23759
G1 X111.500 Y91.701 E421.39290
G1 X115.364 Y92.082 E421.54821
G1 X119.077 Y93.208 E421.70341
G1 X122.496 Y95.036 E421.85849
G0 F9000 X122.079 Y95.426
;TYPE:SKIN
G1 F1980 X95.426 Y122.079 E423.36621
G0 F9000 X95.664 Y122.407
G1 F1980 X122.407 Y95.663 E424.87905
G0 F9000 X122.719 Y95.918
G1 F1980 X95.919 Y122.718 E426.39509
G0 F9000 X96.174 Y123.028
G1 F1980 X123.029 Y96.173 E427.91424
G0 F9000 X123.340 Y96.428
G1 F1980 X96.428 Y123.339 E429.43658
G0 F9000 X96.684 Y123.650
G1 F1980 X123.651 Y96.683 E430.96207
G0 F9000 X123.962 Y96.937
G1 F1980 X96.938 Y123.961 E432.49078
G0 F9000 X97.193 Y124.271
G1 F1980 X124.272 Y97.193 E434.02257
G0 F9000 X124.583 Y97.447
G1 F1980 X97.448 Y124.583 E435.55758
G0 F9000 X97.703 Y124.893
G1 F1980 X124.894 Y97.703 E437.09571
G0 F9000 X125.188 Y97.974
G1 F1980 X97.973 Y125.189 E438.63522
G0 F9000 X98.284 Y125.444
G1 F1980 X125.443 Y98.285 E440.17157
G0 F9000 X125.698 Y98.596
G1 F1980 X98.595 Y125.698 E441.70472
G0 F9000 X98.906 Y125.953
G1 F1980 X125.952 Y98.907 E443.23467
G0 F9000 X126.207 Y99.217
G1 F1980 X99.216 Y126.208 E444.76151
G0 F9000 X99.528 Y126.463
G1 F1980 X126.462 Y99.528 E446.28516
G0 F9000 X126.717 Y99.839
G1 F1980 X99.838 Y126.718 E447.80566
G0 F9000 X95.229 Y121.710
G1 F1980 X121.711 Y95.228 E449.30371
G0 F9000 X121.342 Y95.032
G1 F1980 X95.033 Y121.341 E450.79197
G0 F9000 X94.835 Y120.973
G1 F1980 X120.973 Y94.835 E452.27056
G0 F9000 X120.605 Y94.637
G1 F1980 X94.638 Y120.604 E453.73948
G0 F9000 X94.441 Y120.236
G1 F1980 X120.237 Y94.440 E455.19872
G0 F9000 X119.868 Y94.243
G1 F1980 X94.244 Y119.867 E456.64823
G0 F9000 X94.047 Y119.498
G1 F1980 X119.499 Y94.046 E458.08801
G0 F9000 X119.131 Y93.849
G1 F1980 X93.850 Y119.130 E459.51812
G0 F9000 X93.671 Y118.743
G1 F1980 X118.743 Y93.671 E460.93641
G0 F9000 X118.309 Y93.539
G1 F1980 X93.540 Y118.308 E462.33755
G0 F9000 X93.408 Y117.875
G1 F1980 X117.876 Y93.407 E463.72167
G0 F9000 X117.441 Y93.275
G1 F1980 X93.276 Y117.441 E465.08868
G0 F9000 X93.145 Y117.007
G1 F1980 X117.007 Y93.144 E466.43855
G0 F9000 X116.573 Y93.012
G1 F1980 X93.013 Y116.572 E467.77130
G0 F9000 X92.882 Y116.138
